client/filepreviewer/pdfjs/web/images/comment-popup-editButton.svg

<svg width="16" height="16" viewBox="0 0 16 16" fill="none" xmlns="http://www.w3.org/2000/svg">
  <path d="M0.0189877 13.6645L0.612989 10.4635C0.687989 10.0545 0.884989 9.6805 1.18099 9.3825L9.98199 0.5805C10.756 -0.1925 12.015 -0.1945 12.792 0.5805L14.42 2.2085C15.194 2.9835 15.194 4.2435 14.42 5.0185L5.61599 13.8215C5.31999 14.1165 4.94599 14.3125 4.53799 14.3875L1.33599 14.9815C1.26599 14.9935 1.19799 15.0005 1.12999 15.0005C0.832989 15.0005 0.544988 14.8835 0.330988 14.6695C0.0679874 14.4055 -0.0490122 14.0305 0.0189877 13.6645ZM12.472 5.1965L13.632 4.0365L13.631 3.1885L11.811 1.3675L10.963 1.3685L9.80299 2.5285L12.472 5.1965ZM4.31099 13.1585C4.47099 13.1285 4.61799 13.0515 4.73399 12.9345L11.587 6.0815L8.91899 3.4135L2.06599 10.2655C1.94899 10.3835 1.87199 10.5305 1.84099 10.6915L1.36699 13.2485L1.75199 13.6335L4.31099 13.1585Z" fill="black"/>
</svg>

<!--path d="M0.0189877 14.1645L0.612989 10.9635C0.687989 10.5545 0.884989 10.1805 1.18099 9.8825L9.98199 1.0805C10.756 0.3075 12.015 0.3055 12.792 1.0805L14.42 2.7085C15.194 3.4835 15.194 4.7435 14.42 5.5185L5.61599 14.3215C5.31999 14.6165 4.94599 14.8125 4.53799 14.8875L1.33599 15.4815C1.26599 15.4935 1.19799 15.5005 1.12999 15.5005C0.832989 15.5005 0.544988 15.3835 0.330988 15.1695C0.0679874 14.9055 -0.0490122 14.5305 0.0189877 14.1645ZM12.472 5.6965L13.632 4.5365L13.631 3.6885L11.811 1.8675L10.963 1.8685L9.80299 3.0285L12.472 5.6965ZM4.31099 13.6585C4.47099 13.6285 4.61799 13.5515 4.73399 13.4345L11.587 6.5815L8.91899 3.9135L2.06599 10.7655C1.94899 10.8835 1.87199 11.0305 1.84099 11.1915L1.36699 13.7485L1.75199 14.1335L4.31099 13.6585Z" fill="black"/-->

<svg xmlns="http://www.w3.org/2000/svg" width="16" height="16" fill="none"><path fill="#000" d="m.019 13.665.594-3.201c.075-.41.272-.784.568-1.082L9.982.582a1.99 1.99 0 0 1 2.81 0l1.628 1.627a1.99 1.99 0 0 1 0 2.81l-8.804 8.804c-.296.295-.67.49-1.078.566l-3.202.594a1.13 1.13 0 0 1-1.317-1.317Zm12.453-8.468 1.16-1.16-.001-.849-1.82-1.82h-.848l-1.16 1.16 2.669 2.669Zm-8.161 7.962a.802.802 0 0 0 .423-.225l6.853-6.852-2.668-2.668-6.853 6.851a.823.823 0 0 0-.225.426l-.474 2.557.385.386 2.559-.476Z"/></svg>
